X:1
T:Title
%%score ( 1 2 ) { 3 | 4 }
L:1/8
Q:1/4=92
M:3/4
K:Ab
V:1 treble nm="Grand Piano, Soprano"
V:2 treble 
V:3 treble nm="Choir Pad, Bass"
V:4 bass 
V:1
 [CE][EA] [EB] [Ac]3 | [FB][EA] [EG] [EA]3 | E[EA] [Ac] [Ae]3 | [Be][A=d] [Ad] [Ge]3 | %4
w: By~John~F.~Noah * * *||||
 [Ge][Ae] [Bd] [Ac]3 | [Ec][EB] [EA] [Fd]3 | z6 | z G z2 z2 |[M:4/4] z2 z d- d4 | z2 z c- c4 | %10
w: ||||||
 z2 z e- e4 | [Ae][A=d][Ad][Ge]- [Ge]4 | z2 z c- c4 | z2 z d- d4 | AG .F2 CCCC | %15
w: |||||
 [EA][Ac][EB][EA]- [EA]4- | [EA]2 z2 z4 |] %17
w: ||
V:2
 x6 | x6 | x6 | x6 | x6 | x6 | [FA][EG] [DF][CE] [EA][Ac]- | [Ac]B- [EB] [EA]3 | %8
[M:4/4] AB .c2 FFFF | FA .B2 EEEE | EA .c2 AAAA | x8 | ee .d2 EEEE | cB .A2 FFFF | z2 z E- E4 | %15
 x8 | x8 |] %17
V:3
 A,C D E3 | DC B, C3 | CC E C3 | B,B, B, B,3 | B,B, E E3 | A,G, A, A,3 | A,A, A,A,[K:treble] CE- | %7
 E D2 C3 |[M:4/4] z4[K:bass] A,A,A,A, | z4 A,A,A,A, | z4[K:treble] CCCC | C[K:bass]B,B,B,- B,4 | %12
 z4 A,A,A,A, | z4 A,A,A,A, | z4 A,A,A,A, | C[K:treble]EDC- C4- | C2 z2 z4 |] %17
V:4
 z A, A, A,3 | D,E, E, A,3 | A,A, A, A,3 | G,F, z E,3 | E,F, G, A,3 | A,,B,, C, D,3 | %6
 D,D, D,E, E,E,- | E, E,2 [A,,A,]3 |[M:4/4] z4 D,D,D,D, | z4 A,,A,,A,,A,, | z4 A,A,A,A, | %11
 .A,2 z E,- E,4 | z8 | z4 D,D,D,D, | z4 E,E,E,E, | E,E,E,A,,- A,,4- | A,,2 z2 z4 |] %17

